images/tractor-two.svg

<svg width="272" height="223" viewBox="0 0 272 223" fill="none" xmlns="http://www.w3.org/2000/svg">
<path d="M63.7143 95.5703C28.5822 95.5703 -3.3217e-09 124.153 -7.40459e-09 159.285C-1.14875e-08 194.417 28.5822 222.999 63.7143 222.999C98.8463 222.999 127.429 194.417 127.429 159.285C127.429 124.153 98.8463 95.5703 63.7143 95.5703ZM63.7143 207.07C37.3658 207.07 15.9286 185.633 15.9286 159.285C15.9286 132.936 37.3658 111.499 63.7143 111.499C90.0628 111.499 111.5 132.936 111.5 159.285C111.5 185.633 90.0628 207.07 63.7143 207.07Z" fill="white" fill-opacity="0.32"/>
<path d="M63.7141 135.395C50.5399 135.395 39.8213 146.113 39.8213 159.287C39.8213 172.462 50.5399 183.18 63.7141 183.18C76.8884 183.18 87.607 172.462 87.607 159.287C87.607 146.113 76.8884 135.395 63.7141 135.395ZM63.7141 167.252C59.3234 167.252 55.7499 163.678 55.7499 159.287C55.7499 154.897 59.3234 151.323 63.7141 151.323C68.1049 151.323 71.6784 154.897 71.6784 159.287C71.6784 163.678 68.1049 167.252 63.7141 167.252Z" fill="white" fill-opacity="0.32"/>
<path d="M255.919 139.63L255.919 111.5C255.919 93.9329 241.629 79.6429 224.062 79.6429L208.134 79.6429L208.134 39.8214C208.134 35.4307 211.707 31.8571 216.098 31.8571L216.098 15.9286C202.924 15.9286 192.205 26.6472 192.205 39.8214L192.205 79.6429L157.247 79.6429L138.133 15.9286L151.322 15.9286L151.322 1.72497e-08L23.8931 2.44048e-09L23.8931 15.9286L39.8217 15.9286L39.8217 66.761C26.3633 70.2413 13.7138 76.6251 2.89355 85.5621L13.0356 97.8446C27.2489 86.1076 45.2474 79.6429 63.7146 79.6429C107.63 79.6429 143.357 115.37 143.357 159.286L143.357 183.179L176.944 183.179C180.748 205.75 200.427 223 224.062 223C250.411 223 271.848 201.563 271.848 175.214C271.848 161.094 265.69 148.387 255.919 139.63ZM55.7503 64.0524L55.7503 15.9286L121.503 15.9286L140.618 79.6429L116.482 79.6429C101.35 69.5838 83.2063 63.7143 63.7146 63.7143C61.0494 63.7143 58.3926 63.8304 55.7503 64.0524ZM134.883 95.5714L224.062 95.5714C232.846 95.5714 239.991 102.716 239.991 111.5L239.991 130.162C235.007 128.395 229.645 127.429 224.062 127.429L153.819 127.429C149.611 115.563 143.125 104.768 134.883 95.5714ZM157.95 143.357L188.478 143.357C182.577 149.94 178.475 158.164 176.944 167.25L159.286 167.25L159.286 159.286C159.286 153.86 158.826 148.54 157.95 143.357ZM224.062 207.071C206.495 207.071 192.205 192.781 192.205 175.214C192.205 157.647 206.495 143.357 224.062 143.357C241.629 143.357 255.919 157.647 255.919 175.214C255.919 192.781 241.629 207.071 224.062 207.071Z" fill="white" fill-opacity="0.32"/>
<path d="M232.026 175.214C232.026 179.613 228.461 183.179 224.062 183.179C219.663 183.179 216.098 179.613 216.098 175.214C216.098 170.815 219.663 167.25 224.062 167.25C228.461 167.25 232.026 170.815 232.026 175.214Z" fill="white" fill-opacity="0.32"/>
</svg>

<svg xmlns="http://www.w3.org/2000/svg" width="272" height="223" fill="none"><path fill="#fff" fill-opacity=".32" d="M63.714 95.57C28.582 95.57 0 124.153 0 159.285s28.582 63.714 63.714 63.714 63.715-28.582 63.715-63.714S98.846 95.57 63.714 95.57m0 111.5c-26.348 0-47.785-21.437-47.785-47.785 0-26.349 21.437-47.786 47.785-47.786 26.349 0 47.786 21.437 47.786 47.786 0 26.348-21.437 47.785-47.786 47.785"/><path fill="#fff" fill-opacity=".32" d="M63.714 135.395c-13.174 0-23.893 10.718-23.893 23.892 0 13.175 10.719 23.893 23.893 23.893s23.893-10.718 23.893-23.893c0-13.174-10.719-23.892-23.893-23.892m0 31.857c-4.39 0-7.964-3.574-7.964-7.965 0-4.39 3.573-7.964 7.964-7.964 4.39 0 7.964 3.574 7.964 7.964s-3.573 7.965-7.964 7.965"/><path fill="#fff" fill-opacity=".32" d="M255.919 139.63V111.5c0-17.567-14.29-31.857-31.857-31.857h-15.928V39.82c0-4.39 3.573-7.964 7.964-7.964V15.93c-13.174 0-23.893 10.718-23.893 23.892v39.822h-34.958l-19.114-63.714h13.189V0H23.893v15.929h15.929V66.76c-13.459 3.48-26.108 9.864-36.928 18.801l10.142 12.283c14.213-11.737 32.211-18.202 50.679-18.202 43.915 0 79.642 35.727 79.642 79.643v23.893h33.587C180.748 205.75 200.427 223 224.062 223c26.349 0 47.786-21.437 47.786-47.786 0-14.12-6.158-26.827-15.929-35.584M55.75 64.052V15.93h65.753l19.115 63.714h-24.136c-15.132-10.06-33.276-15.929-52.767-15.929-2.666 0-5.322.116-7.965.338m79.133 31.52h89.179c8.784 0 15.929 7.144 15.929 15.928v18.662a47.6 47.6 0 0 0-15.929-2.733h-70.243a95.7 95.7 0 0 0-18.936-31.858m23.067 47.785h30.528c-5.901 6.583-10.003 14.807-11.534 23.893h-17.658v-7.964c0-5.426-.46-10.746-1.336-15.929m66.112 63.714c-17.567 0-31.857-14.29-31.857-31.857s14.29-31.857 31.857-31.857 31.857 14.29 31.857 31.857-14.29 31.857-31.857 31.857"/><path fill="#fff" fill-opacity=".32" d="M232.026 175.214a7.964 7.964 0 1 1-15.928 0 7.963 7.963 0 0 1 7.964-7.964 7.963 7.963 0 0 1 7.964 7.964"/></svg>
